modules/hawcons-stroke/icons/icon-21-one-finger-swipe-down.svg

<?xml version="1.0" encoding="UTF-8" standalone="no"?>
<svg width="32px" height="32px" viewBox="0 0 32 32" version="1.1" xmlns="http://www.w3.org/2000/svg" xmlns:xlink="http://www.w3.org/1999/xlink" xmlns:sketch="http://www.bohemiancoding.com/sketch/ns">
    <!-- Generator: Sketch 3.0.3 (7891) - http://www.bohemiancoding.com/sketch -->
    <title>icon 21 one finger swipe down</title>
    <desc>Created with Sketch.</desc>
    <defs></defs>
    <g id="Page-1" stroke="none" stroke-width="1" fill="none" fill-rule="evenodd" sketch:type="MSPage">
        <g id="icon-21-one-finger-swipe-down" sketch:type="MSArtboardGroup" fill="#929292">
            <path d="M28.1244203,21.5 C28.1244203,26.1944206 24.3188409,30 19.6244203,30.0000003 C16.5115051,30.0000003 13.2262273,28.5474856 10.9652407,24.4282229 C7.70175208,18.4825159 3.5282732,14.5832077 5.51553361,12.5959473 C6.9371827,11.1742982 9.16926194,12.5381668 11.1244203,14.3667868 L11.1244203,14.3667868 L11.1244203,5.50840855 C11.1244203,4.11541748 12.2437084,3 13.6244203,3 C15.0147582,3 16.1244203,4.12305276 16.1244203,5.50840855 L16.1244203,10.4983653 C16.5422506,10.1853054 17.0616173,10 17.6244203,10 C18.7069384,10 19.6193054,10.6774672 19.9702378,11.6281239 C20.4110134,11.2379894 20.9901312,11 21.6244203,11 C23.0147582,11 24.1244203,12.1182256 24.1244203,13.4976267 L24.1244203,13.5110883 C24.5422506,13.1985158 25.0616173,13.014191 25.6244203,13.014191 C27.0147582,13.014191 28.1244203,14.1335355 28.1244203,15.5143168 L28.1244203,21.5 L28.1244203,21.5 Z M20.1244203,13.5064385 C20.1244203,12.6715406 20.7959932,12 21.6244203,12 C22.4586231,12 23.1244203,12.6744555 23.1244203,13.5064385 L23.1244203,16 L24.1244203,16 L24.1244203,15.5016756 C24.1244203,14.6711894 24.7959932,14 25.6244203,14 C26.4586231,14 27.1244203,14.6723231 27.1244203,15.5016756 L27.1244203,17.7491622 L27.1244203,21.5 C27.1244203,25.4147752 23.7659914,29 19.6231594,28.9999999 C15.8647052,28.9995418 13.6344161,26.9488875 11.8717958,23.9830936 C7.95978233,17.4007216 5.15828327,14.3887562 6.24545305,13.2957153 C7.35605012,12.1791206 10.0660207,14.599567 12.1244203,16.7999878 L12.1244203,5.50524116 C12.1244203,4.66712976 12.7959932,4 13.6244203,4 C14.4586231,4 15.1244203,4.67391942 15.1244203,5.50524116 L15.1244203,16 L16.1244203,16 L16.1244203,12.5064385 C16.1244203,11.6715406 16.7959932,11 17.6244203,11 C18.4586231,11 19.1244203,11.6744555 19.1244203,12.5064385 L19.1244203,15 L19.1244203,24.049999 L15.8744203,20.799999 L15.1244203,21.549999 L19.6244203,26.049999 L24.1244203,21.549999 L23.3744203,20.799999 L20.1244203,24.049999 L20.1244203,15 L20.1244203,13.5064385 Z" id="one-finger-swipe-down" sketch:type="MSShapeGroup"></path>
        </g>
    </g>
</svg>

<svg width="32" height="32" viewBox="0 0 32 32" xmlns="http://www.w3.org/2000/svg"><path d="M28.124 21.5a8.5 8.5 0 0 1-8.5 8.5c-3.112 0-6.398-1.453-8.659-5.572-3.263-5.945-7.437-9.845-5.45-11.832 1.422-1.422 3.654-.058 5.61 1.77V5.509a2.5 2.5 0 1 1 5 0v4.99a2.493 2.493 0 0 1 1.5-.498c1.082 0 1.994.677 2.345 1.628.441-.39 1.02-.628 1.654-.628 1.39 0 2.5 1.118 2.5 2.498v.013a2.495 2.495 0 0 1 1.5-.497c1.39 0 2.5 1.12 2.5 2.5V21.5zm-8-7.994a1.5 1.5 0 1 1 3 0V16h1v-.498a1.5 1.5 0 1 1 3 0V21.5c0 3.915-3.358 7.5-7.5 7.5-3.76 0-5.99-2.051-7.752-5.017-3.912-6.582-6.714-9.594-5.627-10.687 1.111-1.117 3.821 1.304 5.88 3.504V5.505a1.499 1.499 0 1 1 3 0V16h1v-3.494a1.5 1.5 0 1 1 3 0V24.05l-3.25-3.25-.75.75 4.5 4.5 4.5-4.5-.75-.75-3.25 3.25V13.506z" fill="#929292" fill-rule="evenodd"/></svg>
